components/ui-node-icon/src/outerJoin/outerJoin.large.svg

<svg width="32" height="32" viewBox="0 0 32 32" fill="none" xmlns="http://www.w3.org/2000/svg">
  <path fill-rule="evenodd" clip-rule="evenodd" d="M16 25.8006C14.4999 26.5674 12.8004 27 11 27C4.92487 27 0 22.0751 0 16C0 9.92487 4.92487 5 11 5C12.8004 5 14.4999 5.43256 16 6.19942C17.5001 5.43256 19.1996 5 21 5C27.0751 5 32 9.92487 32 16C32 22.0751 27.0751 27 21 27C19.1996 27 17.5001 26.5674 16 25.8006Z" fill="var(--tbl--colors--icons--transformation--primary)"/>
  <path fill-rule="evenodd" clip-rule="evenodd" d="M16 25.8005C19.5617 23.9798 22 20.2746 22 15.9999C22 11.7252 19.5617 8.02006 16 6.19934C12.4383 8.02004 10 11.7252 10 15.9999C10 20.2746 12.4383 23.9798 16 25.8005Z" fill="white" fill-opacity="0.2"/>
</svg>

<svg xmlns="http://www.w3.org/2000/svg" width="32" height="32" fill="none" viewBox="0 0 32 32">
  <path fill="var(--tbl--colors--icons--transformation--primary)" fill-rule="evenodd" d="M16 25.8c-1.5.767-3.2 1.2-5 1.2-6.075 0-11-4.925-11-11S4.925 5 11 5c1.8 0 3.5.433 5 1.2 1.5-.767 3.2-1.2 5-1.2 6.075 0 11 4.925 11 11s-4.925 11-11 11c-1.8 0-3.5-.433-5-1.2Z" clip-rule="evenodd"/>
  <path fill="#fff" fill-opacity=".2" fill-rule="evenodd" d="M16 25.8a11 11 0 0 0 6-9.8 11 11 0 0 0-6-9.8 11 11 0 0 0-6 9.8 11 11 0 0 0 6 9.8Z" clip-rule="evenodd"/>
</svg>
